src/images/crypto-icon-svg/ark.svg

<svg xmlns="http://www.w3.org/2000/svg" width="32" height="32" viewBox="0 0 32 32">
  <g fill="none">
    <circle cx="16" cy="16" r="16" fill="#F70000"/>
    <path fill="#FFF" d="M15.94676,13.3465207 L5,24.8909637 L15.99593,7 L27,25 L15.94676,13.3465207 Z M17.53516,17.9324656 L14.11273,17.9324656 L15.87273,15.9958323 L17.53516,17.9486859 L17.53516,17.9324656 Z M10.93593,21.1093867 L10.9356,21.0846058 L12.876,19.097622 L12.876,19.0893992 L18.79609,19.0638298 L20.7938,21.1093867 L10.93593,21.1093867 Z"/>
  </g>
</svg>

<svg xmlns="http://www.w3.org/2000/svg" width="32" height="32"><g fill="none"><circle cx="16" cy="16" r="16" fill="#F70000"/><path fill="#FFF" d="M15.947 13.347L5 24.89 15.996 7 27 25 15.947 13.347zm1.588 4.585h-3.422l1.76-1.936 1.662 1.953v-.017zm-6.6 3.177v-.024l1.941-1.987v-.009l5.92-.025 1.998 2.045h-9.858z"/></g></svg>
